humanity-icon-theme/Humanity/apps/16/system-software-install.svg

<?xml version="1.0" encoding="UTF-8" standalone="no"?>
<!-- Created with Inkscape (http://www.inkscape.org/) -->
<svg
   xmlns:svg="http://www.w3.org/2000/svg"
   xmlns="http://www.w3.org/2000/svg"
   xmlns:xlink="http://www.w3.org/1999/xlink"
   version="1.0"
   width="16"
   height="16"
   id="svg3380">
  <defs
     id="defs3382">
    <linearGradient
       id="linearGradient3275">
      <stop
         id="stop3277"
         style="stop-color:#ffffff;stop-opacity:0"
         offset="0" />
      <stop
         id="stop3283"
         style="stop-color:#ffffff;stop-opacity:1"
         offset="0.245" />
      <stop
         id="stop3285"
         style="stop-color:#ffffff;stop-opacity:1"
         offset="0.77350003" />
      <stop
         id="stop3279"
         style="stop-color:#ffffff;stop-opacity:0"
         offset="1" />
    </linearGradient>
    <linearGradient
       x1="44.994774"
       y1="17.5"
       x2="3.0052247"
       y2="17.5"
       id="linearGradient3009"
       xlink:href="#linearGradient3275"
       gradientUnits="userSpaceOnUse"
       gradientTransform="matrix(0.3659501,0,0,0.3609705,-0.7828015,-0.81698)"
       spreadMethod="reflect" />
    <linearGradient
       id="linearGradient3054">
      <stop
         id="stop3056"
         style="stop-color:#ffffff;stop-opacity:1"
         offset="0" />
      <stop
         id="stop3058"
         style="stop-color:#ffffff;stop-opacity:1"
         offset="0.29462135" />
      <stop
         id="stop3060"
         style="stop-color:#ffffff;stop-opacity:0.6901961"
         offset="0.43371025" />
      <stop
         id="stop3062"
         style="stop-color:#ffffff;stop-opacity:0"
         offset="1" />
    </linearGradient>
    <linearGradient
       x1="26"
       y1="22"
       x2="26"
       y2="8"
       id="linearGradient3052"
       xlink:href="#linearGradient3054"
       gradientUnits="userSpaceOnUse"
       gradientTransform="matrix(0.4999997,0,0,0.4999999,-3.999993,-2.9999993)" />
    <linearGradient
       id="linearGradient4559">
      <stop
         id="stop4561"
         style="stop-color:#ffffff;stop-opacity:0"
         offset="0" />
      <stop
         id="stop4563"
         style="stop-color:#ffffff;stop-opacity:0"
         offset="1" />
    </linearGradient>
    <linearGradient
       x1="23.451576"
       y1="30.554907"
       x2="43.00663"
       y2="45.934479"
       id="linearGradient3015"
       xlink:href="#linearGradient4559"
       gradientUnits="userSpaceOnUse"
       gradientTransform="matrix(0.4692303,0,0,0.4240274,-3.0041886,-3.4756141)" />
    <linearGradient
       id="linearGradient3022">
      <stop
         id="stop3024"
         style="stop-color:#c9af8b;stop-opacity:1"
         offset="0" />
      <stop
         id="stop3026"
         style="stop-color:#ad8757;stop-opacity:1"
         offset="0.27982354" />
      <stop
         id="stop3028"
         style="stop-color:#c2a57f;stop-opacity:1"
         offset="0.3566308" />
      <stop
         id="stop3030"
         style="stop-color:#9d7d53;stop-opacity:1"
         offset="1" />
    </linearGradient>
    <linearGradient
       x1="15.464298"
       y1="7.9756851"
       x2="15.464298"
       y2="45.04248"
       id="linearGradient3020"
       xlink:href="#linearGradient3022"
       gradientUnits="userSpaceOnUse"
       gradientTransform="matrix(0.3659501,0,0,0.3609705,-0.7828015,-1.5613271)" />
    <linearGradient
       id="linearGradient3032">
      <stop
         id="stop3034"
         style="stop-color:#dac197;stop-opacity:1"
         offset="0" />
      <stop
         id="stop3036"
         style="stop-color:#c1a581;stop-opacity:1"
         offset="0.28352803" />
      <stop
         id="stop3038"
         style="stop-color:#dbc298;stop-opacity:1"
         offset="0.36018604" />
      <stop
         id="stop3040"
         style="stop-color:#a68b60;stop-opacity:1"
         offset="1" />
    </linearGradient>
    <linearGradient
       x1="24.822832"
       y1="15.377745"
       x2="24.996943"
       y2="37.27668"
       id="linearGradient3018"
       xlink:href="#linearGradient3032"
       gradientUnits="userSpaceOnUse"
       gradientTransform="matrix(0.4692303,0,0,0.5621256,-3.0041886,-7.0808391)" />
    <linearGradient
       id="linearGradient2264">
      <stop
         id="stop2266"
         style="stop-color:#d7e866;stop-opacity:1"
         offset="0" />
      <stop
         id="stop2268"
         style="stop-color:#8cab2a;stop-opacity:1"
         offset="1" />
    </linearGradient>
    <linearGradient
       x1="28.314739"
       y1="20.709501"
       x2="0.81572169"
       y2="20.709501"
       id="linearGradient2581"
       xlink:href="#linearGradient2264"
       gradientUnits="userSpaceOnUse"
       gradientTransform="matrix(0,-0.2137249,-0.209647,0,16.377461,15.892256)" />
    <linearGradient
       id="linearGradient3372">
      <stop
         id="stop3374"
         style="stop-color:#ffffff;stop-opacity:1"
         offset="0" />
      <stop
         id="stop3376"
         style="stop-color:#ffffff;stop-opacity:0"
         offset="1" />
    </linearGradient>
    <linearGradient
       x1="11.22264"
       y1="7.0009999"
       x2="11.22264"
       y2="14.492043"
       id="linearGradient3378"
       xlink:href="#linearGradient3372"
       gradientUnits="userSpaceOnUse" />
  </defs>
  <g
     id="layer1">
    <g
       id="g3426">
      <path
         d="M 2.5146738,1.5069219 L 13.309367,1.5069219 C 13.939527,1.5069219 14.223116,1.4034849 14.404126,1.8678929 L 15.502611,5.5 L 15.502611,14.023181 C 15.502611,14.583877 15.540281,14.498209 14.910114,14.498209 L 1.0898852,14.498209 C 0.459722,14.498209 0.4973888,14.583869 0.4973888,14.023181 L 0.4973888,5.5 L 1.5958738,1.8678929 C 1.7718342,1.4128669 1.8845105,1.5069219 2.5146738,1.5069219 L 2.5146738,1.5069219 z"
         id="path2488"
         style="fill:url(#linearGradient3018);fill-opacity:1;fill-rule:nonzero;stroke:url(#linearGradient3020);stroke-width:0.99420077;stroke-linecap:round;stroke-linejoin:miter;marker:none;stroke-miterlimit:4;stroke-dasharray:none;stroke-dashoffset:0;stroke-opacity:1;visibility:visible;display:block;overflow:visible" />
      <path
         d="M 2.8577405,1.8725639 L 12.97731,1.8725639 C 13.568061,1.8725639 13.933677,2.0734589 14.181111,2.6255599 L 15.033386,4.9428889 L 15.033386,13.297391 C 15.033386,13.824652 14.733762,14.090113 14.14301,14.090113 L 1.7983422,14.090113 C 1.2075914,14.090113 0.9666196,13.79815 0.9666196,13.270889 L 0.9666196,4.9428889 L 1.7914019,2.5758759 C 1.9563583,2.1479849 2.2669884,1.8725639 2.8577405,1.8725639 L 2.8577405,1.8725639 z"
         id="path2490"
         style="opacity:0.50549454;fill:none;stroke:url(#linearGradient3015);stroke-width:0.74211526;stroke-linecap:butt;stroke-linejoin:miter;marker:none;stroke-miterlimit:4;stroke-dasharray:none;stroke-dashoffset:0;stroke-opacity:1;visibility:visible;display:block;overflow:visible" />
      <path
         d="M 7,1 C 7.666667,1 8.333333,1 9,1 C 9,3.3333343 9,5.6666671 9,8 C 8.333333,8 7.666667,8 7,8 C 7,5.6666671 7,3.3333343 7,1 z"
         id="rect3326"
         style="opacity:0.4;fill:url(#linearGradient3052);fill-opacity:1;fill-rule:nonzero;stroke:none;stroke-width:1;marker:none;visibility:visible;display:inline;overflow:visible;enable-background:accumulate" />
      <path
         d="M 0.4999356,5.5 L 15.500063,5.5"
         id="path3273"
         style="opacity:0.4;fill:none;stroke:url(#linearGradient3009);stroke-width:1px;stroke-linecap:square;stroke-linejoin:miter;stroke-opacity:1;display:inline" />
    </g>
    <path
       d="M 15.500853,10.5 L 11,15.500853 L 6.4999997,10.5 L 8.5000002,10.5 L 8.5000002,6.5 L 13.5,6.5 L 13.5,10.5 L 15.500853,10.5 z"
       id="path3288"
       style="fill:url(#linearGradient2581);fill-opacity:1;fill-rule:nonzero;stroke:#699536;stroke-width:0.99829459;stroke-linecap:round;stroke-linejoin:round;marker:none;marker-start:none;marker-mid:none;marker-end:none;stroke-miterlimit:4;stroke-dasharray:none;stroke-dashoffset:0;stroke-opacity:1;visibility:visible;display:inline;overflow:visible" />
    <path
       d="M 13.322843,11.5 L 11,13.992999 L 8.7059334,11.5 L 9.5,11.5 L 9.5,7.5 L 12.5,7.5 L 12.5,11.5 L 13.322843,11.5 z"
       id="path3362"
       style="opacity:0.4;fill:none;fill-opacity:1;fill-rule:nonzero;stroke:url(#linearGradient3378);stroke-width:0.99800003;stroke-linecap:round;stroke-linejoin:miter;marker:none;marker-start:none;marker-mid:none;marker-end:none;stroke-miterlimit:4;stroke-dasharray:none;stroke-dashoffset:0;stroke-opacity:1;visibility:visible;display:inline;overflow:visible" />
  </g>
</svg>

<?xml version="1.0" encoding="UTF-8" standalone="no"?>
<!-- Created with Inkscape (http://www.inkscape.org/) -->
<svg id="svg3380" xmlns="http://www.w3.org/2000/svg" height="16" width="16" version="1.0" xmlns:xlink="http://www.w3.org/1999/xlink">
 <defs id="defs3382">
  <linearGradient id="linearGradient3009" y2="17.5" spreadMethod="reflect" gradientUnits="userSpaceOnUse" x2="3.0052" gradientTransform="matrix(.36595 0 0 .36097 -.78280 -.81698)" y1="17.5" x1="44.995">
   <stop id="stop3277" style="stop-color:#fff;stop-opacity:0" offset="0"/>
   <stop id="stop3283" style="stop-color:#fff" offset=".245"/>
   <stop id="stop3285" style="stop-color:#fff" offset=".77350"/>
   <stop id="stop3279" style="stop-color:#fff;stop-opacity:0" offset="1"/>
  </linearGradient>
  <linearGradient id="linearGradient3052" y2="8" gradientUnits="userSpaceOnUse" x2="26" gradientTransform="matrix(0.5 0 0 0.5 -4 -3)" y1="22" x1="26">
   <stop id="stop3056" style="stop-color:#fff" offset="0"/>
   <stop id="stop3058" style="stop-color:#fff" offset=".29462"/>
   <stop id="stop3060" style="stop-color:#fff;stop-opacity:.69020" offset=".43371"/>
   <stop id="stop3062" style="stop-color:#fff;stop-opacity:0" offset="1"/>
  </linearGradient>
  <linearGradient id="linearGradient3015" y2="45.934" gradientUnits="userSpaceOnUse" x2="43.007" gradientTransform="matrix(.46923 0 0 .42403 -3.0042 -3.4756)" y1="30.555" x1="23.452">
   <stop id="stop4561" style="stop-color:#fff;stop-opacity:0" offset="0"/>
   <stop id="stop4563" style="stop-color:#fff;stop-opacity:0" offset="1"/>
  </linearGradient>
  <linearGradient id="linearGradient3020" y2="45.042" gradientUnits="userSpaceOnUse" x2="15.464" gradientTransform="matrix(.36595 0 0 .36097 -.78280 -1.5613)" y1="7.9757" x1="15.464">
   <stop id="stop3024" style="stop-color:#c9af8b" offset="0"/>
   <stop id="stop3026" style="stop-color:#ad8757" offset=".27982"/>
   <stop id="stop3028" style="stop-color:#c2a57f" offset=".35663"/>
   <stop id="stop3030" style="stop-color:#9d7d53" offset="1"/>
  </linearGradient>
  <linearGradient id="linearGradient3018" y2="37.277" gradientUnits="userSpaceOnUse" x2="24.997" gradientTransform="matrix(.46923 0 0 .56213 -3.0042 -7.0808)" y1="15.378" x1="24.823">
   <stop id="stop3034" style="stop-color:#dac197" offset="0"/>
   <stop id="stop3036" style="stop-color:#c1a581" offset=".28353"/>
   <stop id="stop3038" style="stop-color:#dbc298" offset=".36019"/>
   <stop id="stop3040" style="stop-color:#a68b60" offset="1"/>
  </linearGradient>
  <linearGradient id="linearGradient2581" y2="20.71" gradientUnits="userSpaceOnUse" x2=".81572" gradientTransform="matrix(0 -.21372 -.20965 0 16.377 15.892)" y1="20.71" x1="28.315">
   <stop id="stop2266" style="stop-color:#d7e866" offset="0"/>
   <stop id="stop2268" style="stop-color:#8cab2a" offset="1"/>
  </linearGradient>
  <linearGradient id="linearGradient3378" y2="14.492" gradientUnits="userSpaceOnUse" x2="11.223" y1="7.001" x1="11.223">
   <stop id="stop3374" style="stop-color:#fff" offset="0"/>
   <stop id="stop3376" style="stop-color:#fff;stop-opacity:0" offset="1"/>
  </linearGradient>
 </defs>
 <g id="layer1">
  <g id="g3426">
   <path id="path2488" style="stroke:url(#linearGradient3020);stroke-linecap:round;stroke-width:.99420;display:block;fill:url(#linearGradient3018)" d="m2.5147 1.5069h10.794c0.631 0 0.914-0.1034 1.095 0.361l1.099 3.6321v8.523c0 0.561 0.037 0.475-0.593 0.475h-13.82c-0.63028 0-0.59261 0.086-0.59261-0.475v-8.523l1.0985-3.6321c0.1759-0.455 0.2886-0.361 0.9188-0.361z"/>
   <path id="path2490" style="opacity:.50549;stroke:url(#linearGradient3015);stroke-width:.74212;display:block;fill:none" d="m2.8577 1.8726h10.119c0.591 0 0.957 0.2009 1.204 0.753l0.852 2.3173v8.3541c0 0.528-0.299 0.793-0.89 0.793h-12.345c-0.5904 0-0.83138-0.292-0.83138-0.819v-8.3281l0.82478-2.367c0.165-0.4279 0.4756-0.7033 1.0663-0.7033z"/>
   <path id="rect3326" style="opacity:.4;fill:url(#linearGradient3052)" d="m7 1h2v7h-2v-7z"/>
   <path id="path3273" style="opacity:.4;stroke:url(#linearGradient3009);stroke-linecap:square;stroke-width:1px;fill:none" d="m0.49994 5.5h15"/>
  </g>
  <path id="path3288" style="stroke-linejoin:round;stroke:#699536;stroke-linecap:round;stroke-width:.99829;fill:url(#linearGradient2581)" d="m15.501 10.5l-4.501 5.001-4.5-5.001h2v-4h5v4h2.001z"/>
  <path id="path3362" style="opacity:.4;stroke:url(#linearGradient3378);stroke-linecap:round;stroke-width:0.998;fill:none" d="m13.323 11.5l-2.323 2.493-2.2941-2.493h0.7941v-4h3v4h0.823z"/>
 </g>
</svg>
